Simply-Blue-Circles/scalable/devices/auth-smartcard.svg

<svg xmlns="http://www.w3.org/2000/svg" width="48" height="48" viewBox="0 0 12.7 12.7"><path d="M6.344.073a6.29 6.29 0 0 0-6.29 6.29 6.29 6.29 0 0 0 6.29 6.288 6.29 6.29 0 0 0 6.29-6.289 6.29 6.29 0 0 0-6.29-6.29zm-.018.936a5.407 5.407 0 0 1 5.407 5.407 5.407 5.407 0 0 1-5.407 5.407A5.407 5.407 0 0 1 .92 6.416 5.407 5.407 0 0 1 6.326 1.01zM3.872 2.194a.953.953 0 0 0-.955.955v1.854c0 .043.007.085.013.126v4.592c0 .462.374.836.836.836h5.022a.833.833 0 0 0 .833-.836l-.005-6.69a.833.833 0 0 0-.832-.837H3.872zm.312 3.764h.837V7.63h-.837V5.958zm1.673 0h.836v.836h-.836v-.836zm1.673 0h.836V7.63H7.53V5.958zM5.857 7.63h.836v1.672h-.836V7.63zm-1.673.836h.837v.836h-.837v-.836zm3.346 0h.836v.836H7.53v-.836z" fill="#2c89a0"/></svg>

<?xml version="1.0" encoding="UTF-8" standalone="no"?>
<svg
   xmlns:dc="http://purl.org/dc/elements/1.1/"
   xmlns:cc="http://creativecommons.org/ns#"
   xmlns:rdf="http://www.w3.org/1999/02/22-rdf-syntax-ns#"
   xmlns:svg="http://www.w3.org/2000/svg"
   xmlns="http://www.w3.org/2000/svg"
   xmlns:sodipodi="http://sodipodi.sourceforge.net/DTD/sodipodi-0.dtd"
   xmlns:inkscape="http://www.inkscape.org/namespaces/inkscape"
   width="48"
   height="48"
   viewBox="0 0 12.7 12.7"
   version="1.1"
   id="svg4"
   sodipodi:docname="auth-smartcard.svg"
   inkscape:version="0.92.4 (5da689c313, 2019-01-14)">
  <metadata
     id="metadata10">
    <rdf:RDF>
      <cc:Work
         rdf:about="">
        <dc:format>image/svg+xml</dc:format>
        <dc:type
           rdf:resource="http://purl.org/dc/dcmitype/StillImage" />
        <dc:title></dc:title>
      </cc:Work>
    </rdf:RDF>
  </metadata>
  <defs
     id="defs8" />
  <sodipodi:namedview
     pagecolor="#ffffff"
     bordercolor="#666666"
     borderopacity="1"
     objecttolerance="10"
     gridtolerance="10"
     guidetolerance="10"
     inkscape:pageopacity="0"
     inkscape:pageshadow="2"
     inkscape:window-width="1087"
     inkscape:window-height="480"
     id="namedview6"
     showgrid="false"
     inkscape:zoom="4.9166667"
     inkscape:cx="2.1355932"
     inkscape:cy="24"
     inkscape:window-x="0"
     inkscape:window-y="25"
     inkscape:window-maximized="0"
     inkscape:current-layer="svg4" />
  <path
     d="m 6.344,0.073 a 6.29,6.29 0 0 0 -6.29,6.29 6.29,6.29 0 0 0 6.29,6.288 6.29,6.29 0 0 0 6.29,-6.289 6.29,6.29 0 0 0 -6.29,-6.29 z M 6.326,1.009 A 5.407,5.407 0 0 1 11.733,6.416 5.407,5.407 0 0 1 6.326,11.823 5.407,5.407 0 0 1 0.92,6.416 5.407,5.407 0 0 1 6.326,1.01 Z M 3.872,2.194 A 0.953,0.953 0 0 0 2.917,3.149 v 1.854 c 0,0.043 0.007,0.085 0.013,0.126 v 4.592 c 0,0.462 0.374,0.836 0.836,0.836 H 8.788 A 0.833,0.833 0 0 0 9.621,9.721 L 9.616,3.031 A 0.833,0.833 0 0 0 8.784,2.194 Z M 4.184,5.958 H 5.021 V 7.63 H 4.184 Z m 1.673,0 H 6.693 V 6.794 H 5.857 Z m 1.673,0 H 8.366 V 7.63 H 7.53 Z M 5.857,7.63 H 6.693 V 9.302 H 5.857 Z M 4.184,8.466 H 5.021 V 9.302 H 4.184 Z m 3.346,0 H 8.366 V 9.302 H 7.53 Z"
     id="path2"
     inkscape:connector-curvature="0"
     style="fill:#2c89a0" />
</svg>
